svg/u1f4f4.svg

<svg viewBox="0 0 128 128" xmlns="http://www.w3.org/2000/svg">
  <path d="M116,4H12c-4.42,0-8,3.58-8,8v104c0,4.42,3.58,8,8,8h104c4.42,0,8-3.58,8-8V12 C124,7.58,120.42,4,116,4z" fill="#F77E00"/>
  <g>
    <path d="M116,4H12c-4.42,0-8,3.58-8,8v104c0,4.42,3.58,8,8,8h104c4.42,0,8-3.58,8-8V12 C124,7.58,120.42,4,116,4z" fill="#F77E00"/>
    <path d="M109.7,4H11.5C7.37,4.03,4.03,7.37,4,11.5v97.9c-0.01,4.14,3.34,7.49,7.48,7.5c0.01,0,0.01,0,0.02,0 h98.1c4.14,0.01,7.49-3.34,7.5-7.48c0-0.01,0-0.01,0-0.02V11.5c0.09-4.05-3.13-7.41-7.18-7.5C109.85,4,109.77,4,109.7,4z" fill="#FF9800"/>
    <path d="M39.7,12.9c0-2.3-1.6-3-10.8-2.7c-7.7,0.3-11.5,1.2-13.8,4 s-2.9,8.5-3,15.3c0,4.8,0,9.3,2.5,9.3c3.4,0,3.4-7.9,6.2-12.3C26.2,17.8,39.7,15.9,39.7,12.9z" opacity="0.75" fill="#FFBD52" enable-background="new "/>
    <g>
      <path d="M40.44,76.79c-2.23-1.29-3.99-3.06-5.27-5.31s-1.92-4.71-1.92-7.4c0-2.69,0.64-5.16,1.92-7.4 c1.28-2.25,3.04-4.02,5.27-5.31s4.72-1.94,7.46-1.94s5.23,0.65,7.46,1.94c2.23,1.29,3.99,3.06,5.27,5.31s1.92,4.71,1.92,7.4 s-0.64,5.16-1.92,7.4s-3.04,4.01-5.27,5.31c-2.23,1.29-4.72,1.94-7.46,1.94S42.67,78.09,40.44,76.79z M52.64,72.5 c1.44-0.81,2.57-1.95,3.39-3.41c0.82-1.46,1.23-3.13,1.23-5.01c0-1.88-0.41-3.55-1.23-5.01c-0.82-1.46-1.95-2.6-3.39-3.41 s-3.02-1.21-4.74-1.21s-3.3,0.41-4.72,1.21c-1.42,0.81-2.55,1.95-3.37,3.41s-1.23,3.13-1.23,5.01c0,1.88,0.41,3.55,1.23,5.01 s1.95,2.6,3.37,3.41c1.42,0.81,3,1.21,4.72,1.21S51.21,73.31,52.64,72.5z" fill="#FAFAFA"/>
      <path d="M66.57,50.06h17.79v5.01h-12.5v6.82H83.1v5.01H71.86v11.2h-5.29V50.06z" fill="#FAFAFA"/>
      <path d="M89.02,50.06h17.79v5.01H94.3v6.82h11.24v5.01H94.3v11.2h-5.29L89.02,50.06L89.02,50.06z" fill="#FAFAFA"/>
    </g>
    <path d="M66.44,84.1v11.26c0,0.63-0.51,1.14-1.14,1.14H30.5c-0.59,0.04-1.11-0.41-1.14-1 c0-0.05,0-0.09,0-0.14V32.63c0-0.63,0.51-1.14,1.14-1.14h34.8c0.59-0.04,1.11,0.41,1.14,1c0,0.05,0,0.09,0,0.14v11.78h4.58V26.33 c-0.01-1.61-1.08-3.01-2.63-3.43c-2.29-0.57-8.24-2.4-20.49-2.4s-19.35,2.06-20.49,2.4c-1.55,0.42-2.63,1.83-2.63,3.43v75.44 c0.04,1.59,1.1,2.98,2.63,3.43c1.26,0.34,8.24,2.4,20.49,2.4s18.32-1.83,20.49-2.4c1.55-0.42,2.63-1.83,2.63-3.43V84.1H66.44z M39.77,25.64h16.26c0.63,0,1.14,0.51,1.14,1.14s-0.51,1.14-1.14,1.14H39.77c-0.63,0-1.14-0.51-1.14-1.14S39.14,25.64,39.77,25.64z M31.87,25.64c0.63,0,1.14,0.51,1.14,1.14s-0.51,1.14-1.14,1.14s-1.14-0.51-1.14-1.14C30.77,26.18,31.26,25.69,31.87,25.64z M56.03,102.23H39.77c-0.63,0-1.14-0.51-1.14-1.14s0.51-1.14,1.14-1.14h16.26c0.63,0,1.14,0.51,1.14,1.14 C57.13,101.69,56.64,102.18,56.03,102.23z" fill="#FAFAFA"/>
  </g>
</svg>

<svg viewBox="0 0 128 128" xmlns="http://www.w3.org/2000/svg">
  <defs/>
  <path d="M116,4 L12,4 C7.58,4 4,7.58 4,12 L4,116 C4,120.42 7.58,124 12,124 L116,124 C120.42,124 124,120.42 124,116 L124,12 C124,7.58 120.42,4 116,4 Z" fill="#F77E00"/>
  <path d="M116,4 L12,4 C7.58,4 4,7.58 4,12 L4,116 C4,120.42 7.58,124 12,124 L116,124 C120.42,124 124,120.42 124,116 L124,12 C124,7.58 120.42,4 116,4 Z" fill="#F77E00"/>
  <path d="M109.7,4 L11.5,4 C7.37,4.03 4.03,7.37 4,11.5 L4,109.4 C3.99,113.54 7.34,116.89 11.48,116.9 C11.49,116.9 11.49,116.9 11.5,116.9 L109.6,116.9 C113.74,116.91 117.09,113.56 117.1,109.42 C117.1,109.41 117.1,109.41 117.1,109.4 L117.1,11.5 C117.19,7.45 113.97,4.09 109.92,4 C109.85,4 109.77,4 109.7,4 Z" fill="#FF9800"/>
  <path d="M39.7,12.9 C39.7,10.6 38.1,9.9 28.9,10.2 C21.2,10.5 17.4,11.4 15.1,14.2 C12.8,17 12.2,22.7 12.1,29.5 C12.1,34.3 12.1,38.8 14.6,38.8 C18,38.8 18,30.9 20.8,26.5 C26.2,17.8 39.7,15.9 39.7,12.9 Z" fill="#FFBD52" opacity="0.75"/>
  <path d="M40.44,76.79 C38.21,75.5 36.45,73.73 35.17,71.48 C33.89,69.23 33.25,66.77 33.25,64.08 C33.25,61.39 33.89,58.92 35.17,56.68 C36.45,54.43 38.21,52.66 40.44,51.37 C42.67,50.08 45.16,49.43 47.9,49.43 C50.64,49.43 53.13,50.08 55.36,51.37 C57.59,52.66 59.35,54.43 60.63,56.68 C61.91,58.93 62.55,61.39 62.55,64.08 C62.55,66.77 61.91,69.24 60.63,71.48 C59.35,73.72 57.59,75.49 55.36,76.79 C53.13,78.08 50.64,78.73 47.9,78.73 C45.16,78.73 42.67,78.09 40.44,76.79 Z M52.64,72.5 C54.08,71.69 55.21,70.55 56.03,69.09 C56.85,67.63 57.26,65.96 57.26,64.08 C57.26,62.2 56.85,60.53 56.03,59.07 C55.21,57.61 54.08,56.47 52.64,55.66 C51.2,54.85 49.62,54.45 47.9,54.45 C46.18,54.45 44.6,54.86 43.18,55.66 C41.76,56.47 40.63,57.61 39.81,59.07 C38.99,60.53 38.58,62.2 38.58,64.08 C38.58,65.96 38.99,67.63 39.81,69.09 C40.63,70.55 41.76,71.69 43.18,72.5 C44.6,73.31 46.18,73.71 47.9,73.71 C49.62,73.71 51.21,73.31 52.64,72.5 Z" fill="#FAFAFA"/>
  <path d="M66.57,50.06 L84.36,50.06 L84.36,55.07 L71.86,55.07 L71.86,61.89 L83.1,61.89 L83.1,66.9 L71.86,66.9 L71.86,78.1 L66.57,78.1 L66.57,50.06 Z" fill="#FAFAFA"/>
  <path d="M89.02,50.06 L106.81,50.06 L106.81,55.07 L94.3,55.07 L94.3,61.89 L105.54,61.89 L105.54,66.9 L94.3,66.9 L94.3,78.1 L89.01,78.1 L89.02,50.06 L89.02,50.06 Z" fill="#FAFAFA"/>
  <path d="M66.44,84.1 L66.44,95.36 C66.44,95.99 65.93,96.5 65.3,96.5 L30.5,96.5 C29.91,96.54 29.39,96.09 29.36,95.5 C29.36,95.45 29.36,95.41 29.36,95.36 L29.36,32.63 C29.36,32 29.87,31.49 30.5,31.49 L65.3,31.49 C65.89,31.45 66.41,31.9 66.44,32.49 C66.44,32.54 66.44,32.58 66.44,32.63 L66.44,44.41 L71.02,44.41 L71.02,26.33 C71.01,24.72 69.94,23.32 68.39,22.9 C66.1,22.33 60.15,20.5 47.9,20.5 C35.65,20.5 28.55,22.56 27.41,22.9 C25.86,23.32 24.78,24.73 24.78,26.33 L24.78,101.77 C24.82,103.36 25.88,104.75 27.41,105.2 C28.67,105.54 35.65,107.6 47.9,107.6 C60.15,107.6 66.22,105.77 68.39,105.2 C69.94,104.78 71.02,103.37 71.02,101.77 L71.02,84.1 L66.44,84.1 Z M39.77,25.64 L56.03,25.64 C56.66,25.64 57.17,26.15 57.17,26.78 C57.17,27.41 56.66,27.92 56.03,27.92 L39.77,27.92 C39.14,27.92 38.63,27.41 38.63,26.78 C38.63,26.15 39.14,25.64 39.77,25.64 Z M31.87,25.64 C32.5,25.64 33.01,26.15 33.01,26.78 C33.01,27.41 32.5,27.92 31.87,27.92 C31.24,27.92 30.73,27.41 30.73,26.78 C30.77,26.18 31.26,25.69 31.87,25.64 Z M56.03,102.23 L39.77,102.23 C39.14,102.23 38.63,101.72 38.63,101.09 C38.63,100.46 39.14,99.95 39.77,99.95 L56.03,99.95 C56.66,99.95 57.17,100.46 57.17,101.09 C57.13,101.69 56.64,102.18 56.03,102.23 Z" fill="#FAFAFA"/>
</svg>
